!!!COM: Gonzaga, Francisca
!!!CDT: 1847/10/17-1935/02/28
!!!OTL: Suspiro
!!!OPR: Tangos
**kern	**kern	**dynam
*part1	*part1	*part1
*staff2	*staff1	*
*clefF4	*clefG2	*
*k[b-e-a-d-]	*k[b-e-a-d-]	*
*M2/4	*M2/4	*
*f:	*f:	*
=1	=1	=1
2r	2cc	.
=2	=2	=2
2r	2cc	.
=3	=3	=3
2a-	2cc	.
=4	=4	=4
4g	4cc	.
4r;	4r;	.
=5||	=5||	=5||
!	!LO:TX:b:i:t=espressivo	!
!	!LO:TX:a:t=Tango	!
8.FFL	8.fL	.
16FJk 16c	16bnJk	.
8A-L 8f	4cc	.
8FJ 8c	.	.
=6	=6	=6
8.AA-L	16r	.
.	(16bnLL	.
.	16cc	.
16FJk 16c	16ffJJ	.
8A-L 8f	16bb-LL	.
.	16aa-	.
8FJ 8c	16ff	.
.	16ccJJ)	.
=7	=7	=7
8.DnL	8.bnL	.
16GJk 16dn	16ff#XJk	.
8BnL 8g	4gg	.
8GJ 8d	.	.
!!linebreak:original
=8	=8	=8
8.GGL	16r	.
.	(16bnLL	.
.	16ddn	.
16GJk 16dn	16ffJJ	.
8BnL 8f	8aa-L	.
8GJ 8d	8ggJ)	.
=9	=9	=9
8.CL	8.b-L	.
16EnJk 16c	16ff#XJk	.
8B-L 8en	4gg^	.
8EJ 8c	.	.
=10	=10	=10
8.CL	16r	.
.	(16b-LL	.
.	16cc	.
16EnJk 16c	16eenJJ	.
8B-L 8en	16ggLL	.
.	16cc	.
8EJ 8c	16ee	.
.	16cccJJ)	.
=11	=11	=11
8.CL	(16bb-LL	.
.	16aa-	.
.	16ff	.
16A-Jk	16ccJJ	.
8c 8f	16b-LL	.
.	16a-	.
8r	16f	.
.	16cJJ)	.
=12	=12	=12
4Dn^	(16BnLL	.
.	16f	.
.	16a-	.
.	16gJJ)	.
4En^	(16B-XLL	.
.	16c	.
.	16a-	.
.	16gJJ)	.
=13	=13	=13
8.FFL	8.fL	.
16FJk 16c	16bnJk	.
8A-L 8f	4cc^	.
8FJ 8c	.	.
!!linebreak:original
=14	=14	=14
8.AA-L	16r	.
.	(16bnLL	.
.	16cc	.
16FJk 16c	16ffJJ	.
8A-L 8f	16bb-LL	.
.	16aa-	.
8FJ 8c	16ff	.
.	16ccJJ)	.
=15	=15	=15
8.DnL	8.bnL	.
16GJk 16dn	16ff#XJk	.
8BnL 8g	4gg^	.
8GJ 8d	.	.
=16	=16	=16
8.GGL	16r	.
.	(16bnLL	.
.	16ddn	.
16GJk 16dn	16ffJJ	.
8BnL 8f	8aa-^L	.
8GJ 8d	8ggJ)	.
=17	=17	=17
8.CL	(16ccLL	.
.	16ccc^	.
.	16aa-	.
16FJk	16ffJJ	.
8A- 8c 8f	16ccLL	.
.	16a-	.
8r	16f	.
.	16cJJ)	.
=18	=18	=18
8.CCL	(16B-LL	.
.	16c	.
.	16en	.
16EnJk	16gJJ	.
8B-L 8c 8en	16b-LL	.
.	16cc	.
8EJ	16een	.
.	16ggJJ)	.
!!linebreak:original
=19	=19	=19
8.FFL	(16ffLL	.
.	16ccc	.
.	16ff	.
16FJk	16aa-JJ	.
8A-L 8c 8f	16ccLL	.
.	16ff	.
8FJ	16a-	.
.	16ccJJ)	.
=20	=20	=20
8.FFL	4f	.
16FJk	.	.
8A-L 8c 8f	4r	.
8FJ	.	.
=21||	=21||	=21||
*b-:	*b-:	*
!	!LO:TX:b:i:t=una corda	!
8.FFL	2ee-^ 2gg-X	.
16AnJk 16e-	.	.
8cL 8f	.	.
8AJ 8e-	.	.
=22	=22	=22
8.FFL	4dd-^ 4ff	.
16AnJk 16e-	.	.
8cL 8f	4cc^ 4ee-	.
8AJ 8e-	.	.
=23	=23	=23
8.FFL	4.b-^ 4.dd-	.
16FJk 16d-	.	.
8B-L 8f	.	.
8FJ 8d-	8dd-^ 8ff	.
=24	=24	=24
8.D-L	2ff^ 2bb-	.
16FJk 16d-	.	.
8B-L 8f	.	.
8FJ 8d-	.	.
=25	=25	=25
8.AA-L	4ff^ 4aa-	f
16FJk 16d-	.	.
8A-L 8f	4aa-^ 4fff	.
8FJ 8d-	.	.
!!linebreak:original
=26	=26	=26
8.AA-L	4gg-X^ 4eee-	.
16G-XJk 16c	.	.
8A-L 8g-X	4gg-^ 4ccc	.
8G-J 8c	.	.
=27	=27	=27
8.DD-L	4.ff^ 4.ddd-	.
16FJk 16d-	.	.
8A-L 8f	.	.
8FJ 8d-	8ff^ 8aa-	.
=28	=28	=28
8.DD-L	2ff^ 2ddd-	.
16FJk 16d-	.	.
8A-L 8f	.	.
8FJ 8d-	.	.
=29	=29	=29
8.FFL	2ee- 2gg-X	.
16AnJk 16e-	.	.
8cL 8f	.	.
8AJ 8e-	.	.
=30	=30	=30
8.FFL	4dd- 4ff	.
16AnJk 16e-	.	.
8cL 8f	4cc 4ee-	.
8AJ 8e-	.	.
=31	=31	=31
8.FFL	4.b- 4.dd-	.
16FJk 16d-	.	.
8B-L 8f	.	.
8FJ 8d-	8dd- 8ff	.
=32	=32	=32
8.D-L	2ff 2bb-	.
16FJk 16d-	.	.
8B-L 8f	.	.
8FJ 8d-	.	.
=33	=33	=33
*D-:	*D-:	*
!	!LO:TX:a:t=rall.	!
8.AA-L	8ff^L 8aa-	f
.	8ff 8ddd-	.
16FJk 16d-	.	.
8A-L 8f	8gg-X 8eee-	.
8FJ 8d-	8aa-J 8fff	.
!!pagebreak:original
=34	=34	=34
8.AA-L	4.ccc 4.ggg-X	p
16G-XJk 16c	.	.
8A-L 8g-X	.	.
8G-J 8c	8ccc	.
=35	=35	=35
8.DD-L	4.ff 4.ddd-	.
16FJk 16d-	.	.
8A-L 8f	.	.
8FJ 8d-	8aa-	.
=36	=36	=36
8.DD-L	2ff 2ddd-	.
16FJk 16d-	.	.
8A-L 8f	.	.
8FJ 8d-	.	.
=37||	=37||	=37||
*b-:	*b-:	*
!	!LO:TX:a:t=accel.	!
8.FFL	4.aan 4.fff	f
16AnJk 16e-	.	.
8cL 8f	.	.
8AJ 8e-	8ccc 8fff	.
=38	=38	=38
8.FFL	2bb- 2ddd-	.
16FJk 16d-	.	.
8B-L 8f	.	.
8FJ 8d-	.	.
=39	=39	=39
8.CL	4.een^ 4.ccc	.
16EnJk 16c	.	.
8B-L 8en	.	.
8EJ 8c	8ee 8bb-	.
=40	=40	=40
8.FFL	2ff 2aan	.
16FJk 16c	.	.
8AnL 8f	.	.
8FJ 8c	.	.
!!linebreak:original
=41	=41	=41
!	!LO:TX:b:i:t=calando	!
8.FFL	4.an^ 4.ff	p
16AnJk 16e-	.	.
8cL 8f	.	.
8AJ 8e-	8cc 8ee-	.
=42	=42	=42
!	!LO:TX:b:i:t=dim.	!
8.FFL	2b- 2dd-	.
16FJk 16d-	.	.
8B-L 8f	.	.
8FJ 8d-	.	.
=43	=43	=43
*F:	*F:	*
8.CL	2een 2ccc	.
16EnJk 16c	.	.
8B-L 8en	.	.
8EJ 8c	.	.
=44	=44	=44
4FF; 4C 4F	4aan; 4fff	.
4r	8ddnL 8ff	.
.	8ccJ 8ee-	.
=45!|:	=45!|:	=45!|:
*b-:	*b-:	*
*k[b-e-]	*k[b-e-]	*
!	!LO:TX:b:i:t=affet.	!
8.BB-L	4b- 4dd	.
16DJk 16B-	.	.
8FL 8d	[4dd [4ff	.
8DJ 8B-	.	.
=46	=46	=46
8.GGL	4dd] 4ff]	.
16GJk 16d	.	.
8BnL 8f	4bn^ 4gg	.
8GJ 8d	.	.
=47	=47	=47
8.CL	[2een [2ccc	.
16EnJk 16c	.	.
8GL 8en	.	.
8EJ 8c	.	.
!!linebreak:original
=48	=48	=48
8.CL	4ee] 4ccc]	.
16EnJk 16c	.	.
8GL 8en	8eenL 8ccc	.
8EJ 8c	8eeJ 8bb-	.
=49	=49	=49
8.FFL	4ff 4aa	.
16AJk 16e-	.	.
8cL 8f	4aa 4fff	.
8AJ 8e-	.	.
=50	=50	=50
8.FFL	4aa 4fff	.
16AJk 16e-	.	.
8cL 8f	8ffL 8aa	.
8AJ 8e-	8ee-J 8gg	.
=51	=51	=51
8.FFL	4dd 4ff	.
16FJk 16d	.	.
8B-L 8f	4bb- 4fff	.
8FJ 8d	.	.
=52	=52	=52
8.FFL	4r	.
16FJk 16d	.	.
8B-L 8f	8ddL 8ff	.
8FJ 8d	8ccJ 8ee-	.
=53	=53	=53
8.BB-L	4b- 4dd	.
16DJk 16B-	.	.
8FL 8d	[4dd [4ff	.
8DJ 8B-	.	.
=54	=54	=54
8.GGL	4dd] 4ff]	.
16GJk 16d	.	.
8BnL 8f	4bn 4gg	.
8GJ 8d	.	.
=55	=55	=55
8.CL	[2een [2ccc	.
16EnJk 16c	.	.
8GL 8en	.	.
8EJ 8c	.	.
!!linebreak:original
=56	=56	=56
8.CL	4ee] 4ccc]	.
16EnJk 16c	.	.
8GL 8en	8eenL 8ccc	.
8EJ 8c	8eeJ 8bb-	.
=57	=57	=57
8.FFL	8.dddL 8.fff	.
16FJk 16d	16ffJk 16ddd	.
8B-L 8f	8ddL 8bb-	.
8FJ 8d	8ddJ 8ff	.
=58	=58	=58
8.FFL	4a 4ee-	.
16AJk 16e-	.	.
8cL 8f	4a 4ff	.
8AJ 8e-	.	.
=59	=59	=59
8.BB-L	2b- 2dd	.
16DJk 16B-	.	.
8FL 8d	.	.
8DJ 8B-	.	.
=60	=60	=60
4BB-	2r	.
4r	.	.
=61:|!	=61:|!	=61:|!
*f:	*f:	*
*k[b-e-a-d-]	*k[b-e-a-d-]	*
!	!LO:TX:a:t=Tempo I	!
8.FFL	8.fL	.
16FJk 16c	16bnJk	.
8A-L 8f	[4cc	.
8FJ 8c	.	.
=62	=62	=62
8.AA-L	(16ccLL]	.
.	16bn	.
.	16cc	.
16FJk 16c	16ffJJ	.
8A-L 8f	16bb-LL	.
.	16aa-	.
8FJ 8c	16ff	.
.	16ccJJ)	.
!!linebreak:original
=63	=63	=63
8.DnL	8.bnL	.
16GJk 16dn	16ff#XJk	.
8BnL 8g	[4gg	.
8GJ 8d	.	.
=64	=64	=64
8.GGL	(16ggLL]	.
.	16bn	.
.	16ddn	.
16GJk 16dn	16ffJJ	.
8BnL 8f	8aa-L	.
8GJ 8d	8ggJ)	.
=65	=65	=65
8.CL	(8.b-L	.
16EnJk 16c	16ff#XJk	.
8B-L 8en	[4gg)	.
8EJ 8c	.	.
=66	=66	=66
8.CL	(16ggLL]	.
.	16b-	.
.	16cc	.
16EnJk 16c	16eenJJ	.
8B-L 8en	16ggLL	.
.	16cc	.
8EJ 8c	16ee	.
.	16cccJJ)	.
=67	=67	=67
8.CL	(16bb-^LL	.
.	16aa-	.
.	16ff	.
16A-Jk	16ccJJ)	.
8c 8f	(16b-LL	.
.	16a-	.
8r	16f	.
.	16cJJ)	.
=68	=68	=68
4Dn^	(16BnLL	.
.	16f	.
.	16a-	.
.	16gJJ)	.
4En^	(16B-XLL	.
.	16c	.
.	16a-	.
.	16gJJ)	.
!!linebreak:original
=69	=69	=69
8.FFL	8.fL	.
16FJk 16c	16bnJk	.
8A-L 8f	[4cc	.
8FJ 8c	.	.
=70	=70	=70
8.AA-L	(16ccLL]	.
.	16bn	.
.	16cc	.
16FJk 16c	16ffJJ	.
8A-L 8f	16bb-LL	.
.	16aa-	.
8FJ 8c	16ff	.
.	16ccJJ)	.
=71	=71	=71
8.DnL	8.bnL	.
16GJk 16dn	16ff#XJk	.
8BnL 8g	[4gg^	.
8GJ 8d	.	.
=72	=72	=72
8.GGL	(16ggLL]	.
.	16bn	.
.	16ddn	.
16GJk 16dn	16ffJJ	.
8BnL 8f	8aa-L	.
8GJ 8d	8ggJ)	.
=73	=73	=73
8.CL	(16ccLL	.
.	16ccc	.
.	16aa-	.
16FJk	16ffJJ)	.
8A- 8c 8f	(16ccLL	.
.	16a-	.
8r	16f	.
.	16cJJ)	.
=74	=74	=74
8.CCL	(16B-LL	.
.	16c	.
.	16en	.
16EnJk	16gJJ)	.
8B-L 8c 8en	(16b-LL	.
.	16cc	.
8EJ	16een	.
.	16ggJJ)	.
!!pagebreak:original
=75	=75	=75
8.FFL	(16ffLL	.
.	16ccc	.
.	16ff	.
16FJk	16aa-JJ)	.
8A-L 8c 8f	(16ccLL	.
.	16ff	.
8FJ	16a-	.
.	16ccJJ)	.
=76	=76	=76
4FF	4f	.
4FF 4F	4ff 4aa- 4fff	f
==	==	==
*-	*-	*-
!!!system-decoration: {(s1,s2)}
!!!AGN: Tango
!!!EED: Florian Moldaschl
!!!END: 2025/12/26
!!!ENC: Florian Moldaschl
!!!EEV: 2026/01/14
!!!title: @{OPR}, @{SCT} №@{ONM}